map/src/routing/resources/pin.svg

<svg width="80" height="94" viewBox="0 0 40 47" xmlns="http://www.w3.org/2000/svg">
    <path id="background"
          d="M21.3168 46.1655C23.5019 41.8892 27.6824 39.0858 31.5933 36.2991C36.6817 32.6732 40 26.7241 40 20C40 8.9543 31.0457 0 20 0C8.9543 0 0 8.9543 0 20C0 26.7241 3.31833 32.6732 8.40673 36.2991C12.3176 39.0858 16.4981 41.8892 18.6832 46.1655C19.2517 47.2782 20.7483 47.2782 21.3168 46.1655Z"
          fill="#1988CF"/>
    <path id="outline"
          d="M30.4326 34.6703C35.017 31.4036 38 26.0501 38 20C38 10.0589 29.9411 2 20 2C10.0589 2 2 10.0589 2 20C2 26.0501 4.98299 31.4036 9.56735 34.6703C9.81571 34.8472 10.0679 35.026 10.3232 35.2068C13.7138 37.6092 17.6316 40.3851 20 44.4106C22.3684 40.3851 26.2862 37.6092 29.6768 35.2068C29.9321 35.026 30.1843 34.8472 30.4326 34.6703ZM30.9216 36.7765C27.2118 39.4105 23.3772 42.1332 21.3168 46.1655C20.7483 47.2782 19.2517 47.2782 18.6832 46.1655C16.6228 42.1332 12.7882 39.4105 9.07835 36.7765C8.85388 36.6171 8.62987 36.4581 8.40673 36.2991C3.31833 32.6732 0 26.7241 0 20C0 8.9543 8.9543 0 20 0C31.0457 0 40 8.9543 40 20C40 26.7241 36.6817 32.6732 31.5933 36.2991C31.3701 36.4581 31.1461 36.6171 30.9216 36.7765Z"
          fill="black" fill-opacity="0.3"/>
</svg>

<svg xmlns="http://www.w3.org/2000/svg" width="80" height="94" viewBox="0 0 40 47">
    <path d="M21.317 46.166c2.185-4.276 6.366-7.08 10.276-9.866C36.682 32.673 40 26.724 40 20 40 8.954 31.046 0 20 0S0 8.954 0 20c0 6.724 3.318 12.673 8.407 16.299 3.911 2.787 8.091 5.59 10.276 9.866.569 1.113 2.065 1.113 2.634 0z"
          fill="#1988cf"/>
    <path d="M30.433 34.67C35.017 31.404 38 26.05 38 20c0-9.941-8.059-18-18-18S2 10.059 2 20c0 6.05 2.983 11.404 7.567 14.67l.756.537c3.391 2.402 7.308 5.178 9.677 9.204 2.368-4.026 6.286-6.801 9.677-9.204l.756-.537zm.489 2.106c-3.71 2.634-7.544 5.357-9.605 9.389-.569 1.113-2.065 1.113-2.634 0-2.06-4.032-5.895-6.755-9.605-9.389l-.672-.477C3.318 32.673 0 26.724 0 20 0 8.954 8.954 0 20 0s20 8.954 20 20c0 6.724-3.318 12.673-8.407 16.299l-.672.477z"
          fill-opacity=".3"/>
</svg>
